( Made using CamBam - http://www.cambam.co.uk )
( AttacheGoggles-back4 8/11/2016 5:21:02 PM )
( T0 : 3.175 )
G21 G90 G64 G40
G0 Z3.0
( T0 : 3.175 )
T0 M6
( Pocket1 )
G17
M3 S1000
G0 X5.6675 Y14.3325
G0 Z1.4
G1 F500.0 Z0.0
G1 X6.0539
G3 X5.6675 Y13.9543 I4.4669 J-4.95
G1 Y14.3325
G0 Z3.0
G0 X30.2277
G0 Z1.4
G1 Z0.0
G1 X30.3325
G1 Y14.2359
G3 X30.2277 Y14.3325 I-4.5717 J-4.8534
G1 Y15.6025
G1 X31.6025
G1 Y10.3975
G1 X31.062
G3 X25.7608 Y14.78 I-5.3012 J-1.015
G1 X10.5208
G3 X5.2196 Y10.3975 I0.0 J-5.3975
G1 X4.3975
G1 Y15.6025
G1 X30.2277
G1 Y16.8725
G1 X32.8725
G1 Y9.1275
G1 X29.9084
G1 X29.8822 Y9.6074
G3 X25.7608 Y13.51 I-4.1214 J-0.2249
G1 X10.5208
G3 X6.4222 Y9.8696 I0.0 J-4.1275
G1 X6.334 Y9.1275
G1 X3.1275
G1 Y16.8725
G1 X30.2277
G1 Y18.1425
G1 X34.1425
G1 Y7.8575
G1 X28.7058
G1 X28.6141 Y9.5382
G3 X25.7608 Y12.24 I-2.8533 J-0.1557
G1 X10.5208
G3 X7.6833 Y9.7197 I0.0 J-2.8575
G1 X7.462 Y7.8575
G1 X1.8575
G1 Y18.1425
G1 X30.2277
G1 Y19.4125
G1 X35.4125
G1 Y6.5875
G1 X27.5032
G1 X27.346 Y9.469
G3 X25.7608 Y10.97 I-1.5851 J-0.0865
G1 X10.5208
G3 X8.9444 Y9.5699 I0.0 J-1.5875
G1 X8.59 Y6.5875
G1 X0.5875
G1 Y19.4125
G1 X30.2277
G0 Z3.0
M5
M30
